toolkits/global/packages/global-context/img/icons/arrow-right.svg

<svg height="24" viewBox="0 0 24 24" width="24" xmlns="http://www.w3.org/2000/svg"><path d="m15.5302405 16.8891403 4.176208-4.1762079c.3912076-.3912077.3916069-1.0250814-.0000316-1.4167199l-4.1763942-4.17639422c-.3912252-.39122514-1.0190815-.39767006-1.4001736-.01657798-.3911301.39113012-.3930364 1.02337106.003106 1.41951349l2.4818345 2.48183451h-11.6147896l-.11662113.0067277c-.49733868.0577651-.88337887.4804364-.88337887.9932723 0 .5128358.38604019.9355071.88337887.9932722l.11662113.0067278h11.6147896l-2.4816273 2.4816273c-.3928222.3928221-.4005617 1.0219731-.0194697 1.4030652.3911302.3911301 1.0249269.3914806 1.4165479-.0001405z" fill="#666" fill-rule="evenodd"/></svg>

<?xml version="1.0" encoding="UTF-8"?>
<svg width="24px" height="24px" viewBox="0 0 24 24" version="1.1" xmlns="http://www.w3.org/2000/svg" xmlns:xlink="http://www.w3.org/1999/xlink">
    <!-- Generator: Sketch 63.1 (92452) - https://sketch.com -->
    <title>icon-icon / arrow-right</title>
    <desc>Created with Sketch.</desc>
    <g id="icon-/-arrow-right" stroke="none" stroke-width="1" fill="none" fill-rule="evenodd">
        <path d="M15.5302405,16.8891403 L19.7064485,12.7129324 C20.0976561,12.3217247 20.0980554,11.687851 19.7064169,11.2962125 L15.5300227,7.11981828 C15.1387975,6.72859314 14.5109412,6.72214822 14.1298491,7.1032403 C13.738719,7.49437042 13.7368127,8.12661136 14.1329551,8.52275379 L16.6147896,11.0045883 L5,11.0045883 L4.88337887,11.011316 C4.38604019,11.0690811 4,11.4917524 4,12.0045883 C4,12.5174241 4.38604019,12.9400954 4.88337887,12.9978605 L5,13.0045883 L16.6147896,13.0045883 L14.1331623,15.4862156 C13.7403401,15.8790377 13.7326006,16.5081887 14.1136926,16.8892808 C14.5048228,17.2804109 15.1386195,17.2807614 15.5302405,16.8891403 Z" id="arrow-right" fill="#666666"></path>
    </g>
</svg>
